src/assets/bold/lm-square-align-right-bold.svg

<svg width="24" height="24" viewBox="0 0 24 24" fill="none" xmlns="http://www.w3.org/2000/svg" fill="currentColor">
<path d="M21 8.78125C21 8.36704 20.6642 8.03125 20.25 8.03125L3.75 8.03125C3.33579 8.03125 3 8.36704 3 8.78125C3 9.19547 3.33579 9.53125 3.75 9.53125L20.25 9.53125C20.6642 9.53125 21 9.19546 21 8.78125Z" fill="black"/>
<path d="M21 4.75C21 4.33579 20.6642 4 20.25 4H3.75C3.33579 4 3 4.33579 3 4.75C3 5.16421 3.33579 5.5 3.75 5.5H20.25C20.6642 5.5 21 5.16421 21 4.75Z" fill="black"/>
<path fill-rule="evenodd" clip-rule="evenodd" d="M19.4 12.0625H14.6C14.1757 12.0625 13.7687 12.2311 13.4686 12.5311C13.1686 12.8312 13 13.2382 13 13.6625V18.4625C13 18.8868 13.1686 19.2938 13.4686 19.5939C13.7687 19.8939 14.1757 20.0625 14.6 20.0625H19.4C19.8243 20.0625 20.2313 19.8939 20.5314 19.5939C20.8314 19.2938 21 18.8868 21 18.4625V13.6625C21 13.2382 20.8314 12.8312 20.5314 12.5311C20.2313 12.2311 19.8243 12.0625 19.4 12.0625ZM14.6 18.4625H19.4V13.6625H14.6V18.4625Z" fill="black"/>
</svg>

<svg xmlns="http://www.w3.org/2000/svg" width="24" height="24" fill="currentColor" viewBox="0 0 24 24">
  <path d="M21 8.781a.75.75 0 0 0-.75-.75H3.75a.75.75 0 0 0 0 1.5h16.5a.75.75 0 0 0 .75-.75Zm0-4.031a.75.75 0 0 0-.75-.75H3.75a.75.75 0 0 0 0 1.5h16.5a.75.75 0 0 0 .75-.75Z"/>
  <path fill-rule="evenodd" d="M19.4 12.063h-4.8a1.6 1.6 0 0 0-1.6 1.6v4.8a1.6 1.6 0 0 0 1.6 1.6h4.8a1.6 1.6 0 0 0 1.6-1.6v-4.8a1.6 1.6 0 0 0-1.6-1.6Zm-4.8 6.4h4.8v-4.8h-4.8v4.8Z" clip-rule="evenodd"/>
</svg>
